img/svg/cube.svg

<?xml version="1.0" encoding="UTF-8" standalone="no"?>
<svg
   width="24"
   height="24"
   viewBox="0 0 24 24"
   fill="none"
   stroke="currentColor"
   stroke-width="2"
   stroke-linecap="round"
   stroke-linejoin="round"
   class="icon icon-tabler icons-tabler-outline icon-tabler-cube"
   version="1.1"
   id="svg5"
   xmlns="http://www.w3.org/2000/svg"
   xmlns:svg="http://www.w3.org/2000/svg">
  <defs
     id="defs5" />
  <path
     stroke="none"
     d="M0 0h24v24H0z"
     fill="none"
     id="path1" />
  <path
     id="path9"
     style="baseline-shift:baseline;display:inline;overflow:visible;opacity:0.15;vector-effect:none;fill:#000000;stroke:none;stroke-linecap:butt;stroke-linejoin:miter;enable-background:accumulate;stop-color:#000000;stop-opacity:1"
     d="M 12 1 C 11.483414 1 10.966766 1.1320691 10.503906 1.3964844 L 3.5039062 5.4042969 A 1.0001 1.0001 0 0 0 3.5019531 5.40625 C 3.1260205 5.6218513 2.8079547 5.9132887 2.5625 6.2539062 A 1 1 0 0 0 2.5605469 6.2558594 C 2.5600139 6.2566004 2.559126 6.257071 2.5585938 6.2578125 A 1 1 0 0 0 2.4042969 6.4609375 A 1 1 0 0 0 2.3125 6.6796875 A 1 1 0 0 1 2.3183594 6.6542969 C 2.1125404 7.0621969 2 7.5184046 2 7.9902344 L 2 16.009766 C 2 17.077017 2.5776654 18.064042 3.5039062 18.59375 L 10.503906 22.601562 C 10.927775 22.843704 11.396442 22.971736 11.869141 22.992188 C 11.888131 22.993009 11.906779 22.997585 11.925781 22.998047 A 1 1 0 0 1 11.896484 22.994141 A 1 1 0 0 0 12 23 A 1 1 0 0 0 12.103516 22.994141 A 1 1 0 0 1 12.074219 22.998047 C 12.093221 22.997585 12.111869 22.993009 12.130859 22.992188 C 12.603558 22.971736 13.072225 22.843704 13.496094 22.601562 L 20.496094 18.59375 A 1.0001 1.0001 0 0 0 20.498047 18.59375 C 21.423823 18.062759 22 17.074571 22 16.007812 L 22 7.9902344 A 1.0001 1.0001 0 0 0 22 7.9882812 C 21.999175 7.517221 21.886938 7.0619751 21.681641 6.6542969 A 1 1 0 0 1 21.6875 6.6796875 A 1 1 0 0 0 21.595703 6.4609375 A 1 1 0 0 0 21.443359 6.2597656 C 21.441763 6.2575309 21.439102 6.2561366 21.4375 6.2539062 C 21.191597 5.91158 20.873731 5.6196444 20.496094 5.4042969 L 20.494141 5.4042969 L 13.496094 1.3964844 C 13.033234 1.1320691 12.516586 1 12 1 z M 12 2.9980469 C 12.173546 2.9980469 12.347092 3.0432299 12.503906 3.1328125 L 18.958984 6.828125 L 12 10.845703 L 5.0429688 6.828125 L 11.496094 3.1328125 C 11.652908 3.04323 11.826454 2.9980469 12 2.9980469 z M 20.988281 5.9941406 A 1 1 0 0 1 21.228516 6.09375 A 1 1 0 0 0 20.988281 5.9941406 z M 2.2988281 6.7324219 A 1 1 0 0 0 2.28125 6.8164062 A 1 1 0 0 1 2.2988281 6.7324219 z M 21.701172 6.7324219 A 1 1 0 0 1 21.71875 6.8164062 A 1 1 0 0 0 21.701172 6.7324219 z M 2.2753906 6.8789062 A 1 1 0 0 0 2.2714844 6.9296875 A 1 1 0 0 1 2.2753906 6.8789062 z M 21.724609 6.8789062 A 1 1 0 0 1 21.728516 6.9296875 A 1 1 0 0 0 21.724609 6.8789062 z M 2.2753906 7.0292969 A 1 1 0 0 0 2.2773438 7.0722656 A 1 1 0 0 1 2.2753906 7.0292969 z M 21.724609 7.0292969 A 1 1 0 0 1 21.722656 7.0722656 A 1 1 0 0 0 21.724609 7.0292969 z M 2.2890625 7.1386719 A 1 1 0 0 0 2.3027344 7.2070312 A 1 1 0 0 1 2.2890625 7.1386719 z M 21.710938 7.1386719 A 1 1 0 0 1 21.697266 7.2070312 A 1 1 0 0 0 21.710938 7.1386719 z M 2.4316406 7.5019531 A 1 1 0 0 0 2.4746094 7.5664062 A 1 1 0 0 1 2.4316406 7.5019531 z M 21.568359 7.5019531 A 1 1 0 0 1 21.525391 7.5664062 A 1 1 0 0 0 21.568359 7.5019531 z M 4 8.5371094 L 11 12.576172 L 11 20.582031 L 4.4960938 16.857422 C 4.1843346 16.67913 4 16.360515 4 16.009766 L 4 8.5371094 z M 20 8.5371094 L 20 16.007812 C 20 16.357056 19.814083 16.680366 19.501953 16.859375 L 13 20.582031 L 13 12.576172 L 20 8.5371094 z M 11.138672 22.503906 A 1 1 0 0 0 11.175781 22.5625 A 1 1 0 0 1 11.138672 22.503906 z M 12.861328 22.503906 A 1 1 0 0 1 12.824219 22.5625 A 1 1 0 0 0 12.861328 22.503906 z M 11.302734 22.714844 A 1 1 0 0 0 11.353516 22.761719 A 1 1 0 0 1 11.302734 22.714844 z M 12.697266 22.714844 A 1 1 0 0 1 12.646484 22.761719 A 1 1 0 0 0 12.697266 22.714844 z M 11.40625 22.802734 A 1 1 0 0 0 11.482422 22.853516 A 1 1 0 0 1 11.40625 22.802734 z M 12.59375 22.802734 A 1 1 0 0 1 12.517578 22.853516 A 1 1 0 0 0 12.59375 22.802734 z M 11.503906 22.867188 A 1 1 0 0 0 11.597656 22.914062 A 1 1 0 0 1 11.503906 22.867188 z M 12.496094 22.867188 A 1 1 0 0 1 12.402344 22.914062 A 1 1 0 0 0 12.496094 22.867188 z M 11.630859 22.927734 A 1 1 0 0 0 11.699219 22.953125 A 1 1 0 0 1 11.630859 22.927734 z M 12.369141 22.927734 A 1 1 0 0 1 12.300781 22.953125 A 1 1 0 0 0 12.369141 22.927734 z M 11.771484 22.972656 A 1 1 0 0 0 11.824219 22.982422 A 1 1 0 0 1 11.771484 22.972656 z M 12.228516 22.972656 A 1 1 0 0 1 12.175781 22.982422 A 1 1 0 0 0 12.228516 22.972656 z " />
</svg>

<svg xmlns="http://www.w3.org/2000/svg" width="24" height="24" fill="none" stroke="currentColor" stroke-linecap="round" stroke-linejoin="round" stroke-width="2" class="icon icon-tabler icons-tabler-outline icon-tabler-cube" viewBox="0 0 24 24"><path stroke="none" d="M0 0h24v24H0z"/><path stroke="none" d="M12 1c-.517 0-1.033.132-1.496.396l-7 4.008-.002.002a3 3 0 0 0-.94.848l-.001.002-.002.002a1 1 0 0 0-.155.203 1 1 0 0 0-.091.219l.005-.026A3 3 0 0 0 2 7.99v8.02c0 1.067.578 2.054 1.504 2.584l7 4.008c.424.242.892.37 1.365.39.02.001.038.006.057.006l-.03-.004A1 1 0 0 0 12 23a1 1 0 0 0 .104-.006l-.03.004c.02 0 .038-.005.057-.006.473-.02.941-.148 1.365-.39l7-4.008h.002A2.99 2.99 0 0 0 22 16.008v-8.02c0-.47-.113-.926-.318-1.334l.006.026a1 1 0 0 0-.092-.22 1 1 0 0 0-.153-.2l-.006-.006a3 3 0 0 0-.94-.85h-.003l-6.998-4.008A3 3 0 0 0 12 1m0 1.998c.174 0 .347.045.504.135l6.455 3.695L12 10.846 5.043 6.828l6.453-3.695c.157-.09.33-.135.504-.135m8.988 2.996a1 1 0 0 1 .24.1 1 1 0 0 0-.24-.1m-18.69.738-.017.084zm19.403 0 .018.084zM2.275 6.88l-.004.05zm19.45 0 .004.05zm-19.45.15.002.043zm19.45 0-.002.043zm-19.436.11.014.068zm19.422 0-.014.068zm-19.28.363.044.064zm19.137 0-.043.064zM4 8.537l7 4.04v8.005l-6.504-3.725A.97.97 0 0 1 4 16.01zm16 0v7.47a.98.98 0 0 1-.498.852L13 20.582v-8.006zm-8.861 13.967.037.058zm1.722 0-.037.058zm-1.558.21.05.048zm1.394 0-.05.048zm-1.29.089a1 1 0 0 0 .075.05 1 1 0 0 1-.076-.05m1.187 0a1 1 0 0 1-.076.05 1 1 0 0 0 .076-.05m-1.09.064a1 1 0 0 0 .094.047 1 1 0 0 1-.094-.047m.992 0a1 1 0 0 1-.094.047 1 1 0 0 0 .094-.047m-.865.06.068.026zm.738 0-.068.026zm-.598.046.053.01zm.458 0-.053.01z" style="baseline-shift:baseline;display:inline;overflow:visible;opacity:.15;vector-effect:none;fill:#000;stroke:none;stroke-linecap:butt;stroke-linejoin:miter;stop-color:#000;stop-opacity:1"/></svg>
